X:1
T:Bulls of the Speewah
M:3/4
L:1/4
K:G
 D| B, D2| G3/2 A/2 B| A2 F| D2 C| B,2 D| G2 G| G3-| G2 B/2B/2| B B G|\
 A3/2- B/2 c| d2 B| G G B| A2 F| D2 D| D3-| D2 D| B G2| A3/2- B/2 c|\
 d2 B| G3/2- A/2 B| A2 F| D2 B,| C3-| C2 D| E2 E| c B2| A F D/2D/2|\
 D2 C| B,2 D| G2 G| G3-| G2||

